X:1
T:Title
%%score { ( 1 3 ) | ( 2 4 ) }
L:1/8
M:4/4
K:F
V:1 treble nm="Grand Piano"
V:3 treble 
V:2 bass 
V:4 bass 
V:1
 z4 z2[Q:1/4=108] A2 | G3 D D2 E2 | F4 C2 A2 | G3 D D2 E2 |[M:3/4] F4 z2 |[M:1/4] c2 | %6
[M:4/4] [B,FB]2 [CFA]2 [DG]2 [CDA]2 | [B,DB]4 [B,D]2 [B,DG]2 | z4 A4 |[M:3/4] [A,F]4 z2 | %10
[M:1/4] [CFA]2 |[M:4/4] [=B,DA]2 [B,DG]2 [CFA]2 [DG=B]2 | [CGc]4 [CG]2 [CG]2 | %13
 [A,FA]2 [=B,FG]2 [A,FA]2 [F=B]2 |[M:3/4] [Ec]4 z2 |[M:1/4] [Gc]2 |[M:4/4] [Ad]2 [Ac]2 [G=B]2 A2 | %17
 G4 c2 c2 | c2 =B2 A2 B2 |[M:3/4] [Ec]4 z2 |[M:1/4] A2 |[M:4/4] G3 D D2 E2 | F4 C2 A2 | %23
 G3 D D2 E2 |[M:3/4] F4 z2 |[M:1/4] c2 |[M:4/4] [B,FB]2 [CFA]2 [DG]2 [CDA]2 | %27
 [B,DB]4 [B,D]2 [B,DG]2 | z4 A4 |[M:7/4] [A,F]4 z2 z2 z2 z4 |] %30
V:2
 z4 z2 [F,CF]2 | [F,B,]3 [F,B,] [F,B,]2 [F,B,C]2 | [F,A,C]4 [F,A,]2 [F,CF]2 | %3
 [F,B,D]3 [F,B,] [F,B,]2 [F,G,C]2 |[M:3/4] [F,A,C]4 z2 |[M:1/4] [F,A,F]2 | %6
[M:4/4] D,2 C,2 B,,2 A,,2 | G,,4 G,,2 B,,2 | C,2 C,2 C,2 z G |[M:3/4] F,4 z2 |[M:1/4] F,2 | %11
[M:4/4] D,2 F,2 F,2 F,2 | E,4 E,2 E,2 | D,2 D,2 D,2 [D,G,]2 |[M:3/4] [C,G,]4 z2 |[M:1/4] [E,C]2 | %16
[M:4/4] [F,A,]2 [F,A,]2 [F,=B,]2 [F,CF]2 | [G,CE]4 [G,EG]2 [G,CE]2 | %18
 [G,DF]2 [G,DF]2 [G,CF]2 [G,DF]2 |[M:3/4][K:bass] [C,C]4 z2 |[M:1/4] [F,CF]2 | %21
[M:4/4] [F,B,]3 [F,B,] [F,B,]2 [F,B,C]2 | [F,A,C]4 [F,A,]2 [F,CF]2 | %23
 [F,B,D]3 [F,B,] [F,B,]2 [F,G,C]2 |[M:3/4] [F,A,C]4 z2 |[M:1/4] [F,A,F]2 | %26
[M:4/4] D,2 C,2 B,,2 A,,2 | G,,4 G,,2 B,,2 | C,2 C,2 C,2 z G |[M:7/4] F,4 z2 z2 z2 z4 |] %30
V:3
 x8 | x8 | x8 | x8 |[M:3/4] x6 |[M:1/4] x2 |[M:4/4] x8 | x8 | [A,CF]2 [CFA]2 [B,E]2 [B,E]2 | %9
[M:3/4] x6 |[M:1/4] x2 |[M:4/4] x8 | x8 | x8 |[M:3/4] x6 |[M:1/4] x2 |[M:4/4] x8 | x8 | x8 | %19
[M:3/4] x6 |[M:1/4] x2 |[M:4/4] x8 | x8 | x8 |[M:3/4] x6 |[M:1/4] x2 |[M:4/4] x8 | x8 | %28
 [A,CF]2 [CFA]2 [B,E]2 [B,E]2 |[M:7/4] x14 |] %30
V:4
 x8 | x8 | x8 | x8 |[M:3/4] x6 |[M:1/4] x2 |[M:4/4] x8 | x8 | z4 z2 C,2 |[M:3/4] x6 |[M:1/4] x2 | %11
[M:4/4] x8 | x8 | x8 |[M:3/4] x6 |[M:1/4] x2 |[M:4/4] x8 | x8 | x8 |[M:3/4][K:bass] x6 | %20
[M:1/4] x2 |[M:4/4] x8 | x8 | x8 |[M:3/4] x6 |[M:1/4] x2 |[M:4/4] x8 | x8 | z4 z2 C,2 | %29
[M:7/4] x14 |] %30

